X:18298
T:Villagers,The,2nd part. JNu.24
M:6/8
Q:100
S:James Nuttall MS,c1830,Rossendale,East Lancs.
R:Jig
O:England
A:East Lancashire
Z:Chris Partington
K:Bb
"secundo"B,DF B,DF|DFB AGA|DFB AGA|BcBA3|!
B2Bc2c|dBGF3|DFF EFG|F2ED3::!
B,DF B,DF|B,DF B,DF|B2B Bcd|dcBA2F|!
B,DF B,DF|B,DF D3|def fed|F2ED3:|]
